X:10
T:The Primrose Lass
R:reel
O:19th century Irish
S:Silver Apple News, 2004
D:i. Mike MacDougall: Tape for Father Hector. ii.The Barra MacNeils, The Christmas Album
Z:Paul Stewart Cranford (P.S.C.), <http://www.cranfordpub.com>
Q:333
L:1/8
M:C|
K:G
d|edBA {D}G2 GE|DEGA BAAg|edBA {D}G2 GE|DEGA BGGA|
BdAB {D}G2 GE|DEGA BAAd|edBA BGGE|DEGA BGG||
||A|(3(Bcd) gd edgd|Bdgd BAAB|d2 gd edgd|BdAc BGGA|
(3(Bcd) gd edgd|(3(Bcd) gd BAAd|edef gbge|dBAd BGG|]
